public_html/assets/img/tsukasan-logo.svg

<svg width="93" height="77" viewBox="0 0 93 77" fill="none" xmlns="http://www.w3.org/2000/svg">
<path fill-rule="evenodd" clip-rule="evenodd" d="M46.9643 31.3304C72.3889 31.3304 92.9997 6.10786 92.9997 31.3304C92.9997 56.5529 72.3889 76.9998 46.9643 76.9998C21.5397 76.9998 0.928955 56.5529 0.928955 31.3304C0.928955 6.10786 21.5397 31.3304 46.9643 31.3304Z" fill="#FCFCFC"/>
<path d="M25.089 54.506V52.556H21.566V47.811H24.348V45.861H16.639V47.811H19.616V52.556H16.093V54.506H25.089ZM32.317 46.55L29.86 44.73L28.703 46.303L31.173 48.11L32.317 46.55ZM38.102 49.319L36.698 47.98C34.631 50.151 32.122 52.062 29.197 53.687L30.133 55.403C33.24 53.674 35.905 51.646 38.102 49.319ZM51.258 50.073L46.149 47.629L45.551 48.864V44.288H43.601V55.754H45.551V49.501L50.426 51.828L51.258 50.073ZM62.893 44.418H60.943C60.943 46.342 60.787 48.162 60.475 49.878C60.085 51.997 59.5 53.713 58.72 55.026L60.397 56.04C61.268 54.571 61.931 52.699 62.36 50.398C62.711 48.5 62.893 46.511 62.893 44.418ZM57.693 50.775V44.99H55.743V50.775H57.693ZM77.908 50.879V49.059H67.248V50.879H77.908Z" fill="#F45F5F"/>
<path fill-rule="evenodd" clip-rule="evenodd" d="M14.8679 15.0539C17.1094 15.0539 18.9264 13.2368 18.9264 10.9953C18.9264 8.75385 17.1094 6.93677 14.8679 6.93677C12.6264 6.93677 10.8093 8.75385 10.8093 10.9953C10.8093 13.2368 12.6264 15.0539 14.8679 15.0539Z" fill="#FCFCFC"/>
<path fill-rule="evenodd" clip-rule="evenodd" d="M28.487 8.80413C30.7285 8.80413 32.5456 6.98705 32.5456 4.74557C32.5456 2.50409 30.7285 0.687012 28.487 0.687012C26.2455 0.687012 24.4285 2.50409 24.4285 4.74557C24.4285 6.98705 26.2455 8.80413 28.487 8.80413Z" fill="#FCFCFC"/>
</svg>

<svg xmlns="http://www.w3.org/2000/svg" width="93" height="77" fill="none"><path fill="#FCFCFC" fill-rule="evenodd" d="M46.964 31.33C72.39 31.33 93 6.108 93 31.33 93 56.553 72.389 77 46.964 77 21.54 77 .93 56.553.93 31.33c0-25.222 20.61 0 46.035 0Z" clip-rule="evenodd"/><path fill="#F45F5F" d="M25.089 54.506v-1.95h-3.523v-4.745h2.782v-1.95h-7.709v1.95h2.977v4.745h-3.523v1.95h8.996Zm7.228-7.956-2.457-1.82-1.157 1.573 2.47 1.807 1.144-1.56Zm5.785 2.769-1.404-1.339c-2.067 2.171-4.576 4.082-7.501 5.707l.936 1.716c3.107-1.729 5.772-3.757 7.969-6.084Zm13.156.754-5.109-2.444-.598 1.235v-4.576h-1.95v11.466h1.95v-6.253l4.875 2.327.832-1.755Zm11.635-5.655h-1.95c0 1.924-.156 3.744-.468 5.46-.39 2.119-.975 3.835-1.755 5.148l1.677 1.014c.871-1.469 1.534-3.341 1.963-5.642a32.8 32.8 0 0 0 .533-5.98Zm-5.2 6.357V44.99h-1.95v5.785h1.95Zm20.215.104v-1.82h-10.66v1.82h10.66Z"/><path fill="#FCFCFC" fill-rule="evenodd" d="M14.868 15.054a4.059 4.059 0 1 0 0-8.117 4.059 4.059 0 0 0 0 8.117Zm13.619-6.25a4.059 4.059 0 1 0 0-8.117 4.059 4.059 0 0 0 0 8.117Z" clip-rule="evenodd"/></svg>
